X: 216
T:Packy's Place
R:jig
C:Ed Reavy
Z: transcribed by Bil 3/00
M:6/8
L:1/8
Z:Joe Reavy
N:Owned by Ed's favorite neighbors, the Clerkins. 
N:Their son Packy was running the farm when we made 
N:our visit there in '69.
K:G
f|gdB GFG|ABG FED|gdB GFG|Ad^c def|gdB agf|
bag faf|gdB cAF|GAG G2:||A|B^cd def|gfe d=cB|
BGB dBG|cBc ABc|BGB def|gdB ecA|fdB cAF|GAG G2:||
